src/22/actions/view-filter.svg

<svg xmlns="http://www.w3.org/2000/svg" viewBox="0 0 22 22">
  <defs id="defs3051">
    <style type="text/css" id="current-color-scheme">
      .ColorScheme-Text {
        color:#5d656b;
      }
      </style>
  </defs>
 <path 
    style="fill:currentColor;fill-opacity:1;stroke:none" 
    d="M 5 3 L 4 4 L 4 5 L 4 5.3046875 L 9 12.367188 L 9 16 L 9 16.039062 L 12.990234 19 L 13 19 L 13 12.367188 L 18 5.3046875 L 18 4 L 17 3 L 5 3 z M 5 4 L 17 4 L 17 4.9882812 L 12.035156 12 L 12 12 L 12 12.048828 L 12 13 L 12 17.019531 L 10 15.535156 L 10 13 L 10 12.048828 L 10 12 L 9.9648438 12 L 5 4.9882812 L 5 4 z M 6 5 L 8 8 L 8 6 L 10 5 L 6 5 z "
	class="ColorScheme-Text"
    />  
</svg>

<svg xmlns="http://www.w3.org/2000/svg" viewBox="0 0 22 22"><path d="M5 3L4 4v1.305l5 7.062v3.673L12.99 19H13v-6.633l5-7.062V4l-1-1H5zm0 1h12v.988L12.035 12H12v5.02l-2-1.485V12h-.035L5 4.988V4zm1 1l2 3V6l2-1H6z" fill="currentColor" color="#5d656b"/></svg>
